src/images/logo-trainme.svg

<svg width="160" height="68" viewBox="0 0 160 68" fill="none" xmlns="http://www.w3.org/2000/svg">
<path fill-rule="evenodd" clip-rule="evenodd" d="M42.6334 34.3538C42.66 24.8212 35.0662 17.0721 25.6724 17.0457C16.2785 17.0194 8.64181 24.7258 8.6153 34.2584C8.5888 43.7911 16.1825 51.5402 25.5764 51.5665C34.9702 51.5929 42.6069 43.8865 42.6334 34.3538ZM80.9667 44.2406V42.3938C79.8075 43.7855 77.6452 44.7222 75.8512 44.7222C71.4466 44.7222 68.7317 40.9492 68.7317 36.7212C68.7317 32.4932 71.7349 28.8808 76.0615 28.8808C77.6706 28.9057 79.2127 29.5389 80.3861 30.6566C80.5818 30.8414 80.7589 31.0456 80.9147 31.2661H80.9667V29.3908H84.1841V44.2406H80.9667ZM76.59 32.1458C73.9873 32.1458 72.2394 34.3401 72.2394 36.8817C72.2394 39.3706 74.0854 41.4572 76.59 41.4572C79.1928 41.4572 80.8606 39.3178 80.8606 36.7842C80.8606 34.2507 79.1748 32.1458 76.59 32.1458ZM86.5305 24.4394V27.7044H90.0382V24.4394H86.5305ZM86.5305 29.3907V44.2406H90.0382V29.3907H86.5305ZM101.841 44.2406V36.9082C101.841 34.848 101.499 32.1458 98.8878 32.1458C98.4143 32.1587 97.9504 32.284 97.5332 32.5115C97.116 32.7391 96.7571 33.0626 96.4853 33.4563C95.8526 34.3929 95.8526 36.0792 95.8526 37.1763V44.2406H92.3488V29.3908H95.5923V30.6748C96.7536 29.5229 97.9128 28.8808 99.5966 28.8808C100.432 28.8931 101.255 29.0828 102.014 29.4376C102.773 29.7925 103.45 30.3046 104.001 30.941C105.137 32.3327 105.347 34.2608 105.347 35.9979V44.2406H101.841ZM126.14 35.9999V44.2426L129.65 44.2528V35.5834C129.65 34.1105 129.412 32.4262 128.543 31.1949C127.408 29.6163 125.59 28.893 123.718 28.893C121.766 28.893 120.158 29.535 118.997 31.2213C118.549 30.4989 117.926 29.9052 117.188 29.4975C116.449 29.0898 115.619 28.8816 114.778 28.893C113.357 28.893 111.755 29.3481 110.954 30.6586H110.902V29.3928H107.685V44.2243H111.185V36.8126C111.185 34.8155 111.351 32.1397 113.988 32.1397C116.202 32.1397 116.915 34.0475 116.915 35.9999V44.2345H120.418V36.5546C120.418 35.618 120.446 34.3604 120.947 33.5314C121.2 33.1084 121.556 32.7583 121.98 32.5146C122.405 32.2709 122.884 32.1419 123.372 32.1397C125.64 32.1397 126.14 34.1003 126.14 35.9999ZM146.425 38.4076H135.06C135.148 38.7924 135.31 39.1562 135.535 39.4783C135.918 40.0839 136.444 40.5823 137.066 40.928C137.688 41.2737 138.386 41.4557 139.095 41.4572C140.518 41.4572 141.758 40.868 142.47 39.5575H146.158C145.207 42.5807 142.202 44.7222 139.091 44.7222C134.714 44.7222 131.364 41.2682 131.364 36.8553C131.364 32.4424 134.634 28.8808 139.065 28.8808C143.335 28.8808 146.633 32.3063 146.633 36.6136C146.629 37.2175 146.559 37.8192 146.425 38.4076ZM139.095 32.1458C136.958 32.1458 135.457 33.4299 134.954 35.5449H143.051C142.707 33.4034 141.231 32.1458 139.095 32.1458ZM59.4914 29.3907H59.4974V32.548V41.0833V44.2406H55.9896V41.0833V34.4253V32.548H53.1906V29.3907H55.9896V24.4394H59.4914V29.3907ZM65.0151 30.6586H64.9631V29.3502H61.7336V44.2569H65.2534V35.8761C65.2534 33.7001 66.1543 32.3856 68.4568 32.3043V28.8301C66.7089 28.8301 65.9941 29.214 65.0151 30.6586ZM147.875 27.5358V25.0185H148.466V24.4394H146.646V25.0185H147.228V27.5358H147.875ZM151.571 25.4025V27.5358H152.23V24.4394H151.371L150.562 26.6845L149.743 24.4394H148.878V27.5358H149.523V25.4025H149.537L150.286 27.5358H150.822L151.571 25.4025ZM24.7472 24.414H21.2434V29.3592H18.4485V32.5145H21.2434V44.1969H24.7472V24.414ZM30.0108 24.414H26.507V44.1969H30.0108V32.5145H32.8078V29.3592H30.0108V24.414Z" fill="#FCFCFC"/>
</svg>

<svg width="160" height="68" viewBox="0 0 160 68" fill="none" xmlns="http://www.w3.org/2000/svg"><path d="M42.634 34.354c.027-9.533-7.567-17.282-16.96-17.308-9.395-.027-17.031 7.68-17.058 17.212-.026 9.533 7.567 17.282 16.961 17.308 9.394.027 17.03-7.68 17.057-17.212Zm38.334 9.887v-1.847c-1.16 1.392-3.322 2.328-5.116 2.328-4.404 0-7.12-3.773-7.12-8 0-4.229 3.004-7.841 7.33-7.841a6.413 6.413 0 0 1 4.325 1.776 4 4 0 0 1 .529.61h.052V29.39h3.217v14.85h-3.217ZM76.59 32.146c-2.603 0-4.35 2.194-4.35 4.736 0 2.489 1.845 4.575 4.35 4.575 2.603 0 4.27-2.14 4.27-4.673s-1.685-4.638-4.27-4.638Zm9.94-7.707v3.265h3.508V24.44H86.53Zm0 4.952v14.85h3.508V29.39H86.53Zm15.311 14.85v-7.333c0-2.06-.342-4.762-2.953-4.762a3 3 0 0 0-1.355.365 3.049 3.049 0 0 0-1.048.945c-.632.937-.632 2.623-.632 3.72v7.065H92.35V29.39h3.243v1.284c1.161-1.152 2.32-1.794 4.005-1.794a5.911 5.911 0 0 1 2.417.557 5.979 5.979 0 0 1 1.987 1.503c1.135 1.392 1.346 3.32 1.346 5.057v8.243h-3.506Zm24.3-8.241v8.243l3.51.01v-8.67c0-1.472-.238-3.157-1.107-4.388-1.135-1.579-2.953-2.302-4.825-2.302-1.952 0-3.56.642-4.721 2.328a4.944 4.944 0 0 0-1.809-1.724 4.852 4.852 0 0 0-2.41-.604c-1.421 0-3.023.455-3.824 1.766h-.052v-1.266h-3.217v14.831h3.499v-7.411c0-1.998.167-4.673 2.803-4.673 2.215 0 2.928 1.907 2.928 3.86v8.234h3.503v-7.68c0-.936.028-2.194.529-3.023a2.873 2.873 0 0 1 1.033-1.016 2.822 2.822 0 0 1 1.391-.375c2.269 0 2.769 1.96 2.769 3.86Zm20.285 2.408h-11.365c.088.384.249.748.475 1.07a4.264 4.264 0 0 0 1.531 1.45c.622.346 1.32.528 2.029.53 1.423 0 2.663-.59 3.375-1.9h3.688c-.951 3.023-3.956 5.164-7.067 5.164-4.377 0-7.727-3.454-7.727-7.867s3.27-7.974 7.701-7.974c4.27 0 7.568 3.425 7.568 7.733a8.33 8.33 0 0 1-.208 1.794Zm-7.33-6.262c-2.137 0-3.638 1.284-4.141 3.399h8.097c-.344-2.142-1.82-3.4-3.956-3.4ZM59.492 29.39h.006v14.85h-3.507V32.548h-2.8v-3.157h2.8v-4.952h3.501v4.952Zm5.524 1.268h-.052V29.35h-3.23v14.907h3.52v-8.38c0-2.177.901-3.491 3.204-3.573V28.83c-1.748 0-2.463.384-3.442 1.829Zm82.86-3.123v-2.518h.591v-.579h-1.82v.58h.582v2.517h.647Zm3.696-2.134v2.134h.659v-3.097h-.859l-.809 2.245-.819-2.245h-.865v3.097h.645v-2.134h.014l.749 2.134h.536l.749-2.134Zm-126.824-.988h-3.504v4.945H18.45v3.155h2.795v11.683h3.504V24.414Zm5.264 0h-3.504v19.783h3.504V32.514h2.797V29.36h-2.797v-4.945Z" fill="#FCFCFC"/></svg>
